client/src/assets/icons/vectors/warning.svg

<svg xmlns="http://www.w3.org/2000/svg" width="96" height="96" fill="none" viewBox="0 0 96 96">
  <g clip-path="url(#a)">
    <path fill="#000" d="M48 0c26.5 0 48 21.5 48 48S74.5 96 48 96 0 74.5 0 48 21.5 0 48 0Zm0 2C22.6 2 2 22.6 2 48s20.6 46 46 46 46-20.6 46-46S73.4 2 48 2Zm0 57.8c3.4 0 6.1 2.7 6.1 6.1 0 3.4-2.7 6.1-6.1 6.1-3.4 0-6.1-2.7-6.1-6.1 0-3.3 2.7-6.1 6.1-6.1Zm0 2c-2.3 0-4.1 1.8-4.1 4.1S45.7 70 48 70s4.1-1.8 4.1-4.1c0-2.2-1.8-4.1-4.1-4.1ZM48 23c3.5 0 6.4 2.8 6.1 6.2l-1.6 22.5c-.2 2.3-2.2 4-4.5 4-2.4 0-4.4-1.7-4.5-4l-1.6-22.5c-.3-3.4 2.6-6.2 6.1-6.2Zm0 2c-2.4 0-4.3 1.9-4.1 4l1.6 22.5c.1 1.2 1.2 2.1 2.5 2.1s2.4-.9 2.5-2.1L52.1 29c.2-2.1-1.7-4-4.1-4Z"/>
  </g>
  <defs>
    <clipPath id="a">
      <path fill="#fff" d="M0 0h96v96H0z"/>
    </clipPath>
  </defs>
</svg>

<svg width="96" height="96" viewBox="0 0 96 96" fill="none" xmlns="http://www.w3.org/2000/svg">
<g clip-path="url(#clip0_7_68)">
<path d="M48 0C74.5 0 96 21.5 96 48C96 74.5 74.5 96 48 96C21.5 96 0 74.5 0 48C0 21.5 21.5 0 48 0ZM48 2C22.6 2 2 22.6 2 48C2 73.4 22.6 94 48 94C73.4 94 94 73.4 94 48C94 22.6 73.4 2 48 2ZM48 59.8C51.4 59.8 54.1 62.5 54.1 65.9C54.1 69.3 51.4 72 48 72C44.6 72 41.9 69.3 41.9 65.9C41.9 62.6 44.6 59.8 48 59.8ZM48 61.8C45.7 61.8 43.9 63.6 43.9 65.9C43.9 68.2 45.7 70 48 70C50.3 70 52.1 68.2 52.1 65.9C52.1 63.7 50.3 61.8 48 61.8ZM48 23C51.5 23 54.4 25.8 54.1 29.2L52.5 51.7C52.3 54 50.3 55.7 48 55.7C45.6 55.7 43.6 54 43.5 51.7L41.9 29.2C41.6 25.8 44.5 23 48 23ZM48 25C45.6 25 43.7 26.9 43.9 29L45.5 51.5C45.6 52.7 46.7 53.6 48 53.6C49.3 53.6 50.4 52.7 50.5 51.5L52.1 29C52.3 26.9 50.4 25 48 25Z" fill="black"/>
</g>
<defs>
<clipPath id="clip0_7_68">
<rect width="96" height="96" fill="white"/>
</clipPath>
</defs>
</svg>
